X:11305
T:MR. FARRER'S HORNPIPE
B:John of the Greeny Cheshire Way
N: John Offord, Reproduced with permission
M:3/2
L:1/8
K:C
P:1
e4    defe  e4   |A2 c4 e2 f2 ed|e4    defd  e4   |d2   d4 D2 F2 ED||
P:2
G2 E2 F2 D2 E2 C2|G2 E4 C2 DEFD |G2 E2 F2 D2 CD E2|AGAG A2 D2 F2 D2||
P:3
E2 c2 GAGE  CDEC |c2 E2 EFGD F2 D2|E2 c2 GAGE CDEC|AGFE  DCDE F2 D2||
P:4
ecGc  ecGc  e2 dc|edBd ecGc f2 ed|ecGc ecGc e2 dc |dEDE dEDE  F2 D2||
P:5
e2 c2 c2 G2 ABcd |e2 c2 cdec f2 ec|e2c2 cBAG E2 DC|DEFG A2 GE F2 D2||
P:6
EGAG EGcG E2 DC  |EGAG EGAG F2 D2|EGAG EGcG E2 DC |DEFG AGAE  F2 D2||
P:7
c4 A2 GA  c2 de  |c4 A2 GA B2 G2 |c4 A2 GA c2 de  |dAdA dAdA  F2 D2|]
